app/themes/uggwc_pro/assets/images/thema/VWL.svg

<svg width="16" height="16" viewBox="0 0 16 16" fill="none" xmlns="http://www.w3.org/2000/svg">
<g clip-path="url(#clip0_111_192)">
<path d="M8.03057 7.08579V0.490101C8.03057 0.224383 8.23724 0 8.50296 0C12.1551 0 15.1164 2.96127 15.1164 6.61341C15.1164 6.87912 14.892 7.08579 14.6263 7.08579H8.03057ZM3.8147e-06 8.03057C3.8147e-06 4.44929 2.66013 1.48506 6.1115 1.01268C6.38312 0.974297 6.61341 1.19278 6.61341 1.46735V8.50295L11.2339 13.1235C11.4318 13.3213 11.417 13.6461 11.1897 13.8055C10.0323 14.6322 8.61515 15.1164 7.0858 15.1164C3.17385 15.1164 3.8147e-06 11.9455 3.8147e-06 8.03057ZM15.5415 8.50295C15.8161 8.50295 16.0316 8.73324 15.9962 9.00486C15.7688 10.6553 14.9746 12.1226 13.8143 13.2061C13.6372 13.3715 13.3597 13.3597 13.1884 13.1855L8.50296 8.50295H15.5415Z" fill="#6E6CFF"/>
</g>
<defs>
<clipPath id="clip0_111_192">
<rect width="16" height="16" fill="white"/>
</clipPath>
</defs>
</svg>

<svg width="16" height="16" fill="none" xmlns="http://www.w3.org/2000/svg"><g clip-path="url(#a)"><path d="M8.03 7.086V.49c0-.266.207-.49.473-.49a6.614 6.614 0 0 1 6.613 6.613.482.482 0 0 1-.49.473H8.031zM0 8.03a7.086 7.086 0 0 1 6.112-7.018.447.447 0 0 1 .501.454v7.036l4.62 4.62a.445.445 0 0 1-.043.683A7.086 7.086 0 0 1 0 8.03zm15.541.472c.275 0 .49.23.455.502a7.062 7.062 0 0 1-2.182 4.201.449.449 0 0 1-.626-.02L8.503 8.502h7.038z" fill="#6E6CFF"/></g><defs><clipPath id="a"><path fill="#fff" d="M0 0h16v16H0z"/></clipPath></defs></svg>
